X: 255
T: Man Of Aran
C:Darach de Brun
M: 4/4
L: 1/8
R: reel
K:Bmin
"Bm"FBfe dB ~B2|"A"Aced cA ~A2|"Bm"FBfe dB ~B2|FB ~B2 dB ~B2|
"Bm"FBfe dB ~B2|"A"~e3d cA ~A2|"G" (3Bcd eg "Bm"fB ~B2|1 "A"cedc "Bm"dB B2:|2 "A"cedc "Bm"dB Bc|
"D(Bm)"d ~f3 d ~f3 |"A"c~e3 c~e3|"D(Bm)" d ~f3 d ~f3|"A"cedc "Bm"dB ~B2|
"D"dfaf dfaf |"A"cege cege|"D"d2 eg "Bm"fB ~B2|"A"cedc "Bm"dB ~B2:|


